!!!!SEGMENT: Ric1003c-Missa_Veni_sponsa_Christi-Credo
!!!id: Ric1003c
!!!AGN: Mass; Credo
!!!voices: 2-4
!!!OPR: Missa Veni sponsa Christi
!!!COM: Jean Richafort
!!!OTL: Credo
**kern	**kern	**kern	**kern
*part4	*part3	*part2	*part1
*staff4	*staff3	*staff2	*staff1
*I"Bassus	*I"Tenor	*I"Altus	*I"Superius
*I'B	*I'T	*I'A	*I'S
*clefF4	*clefGv2	*clefG2	*clefG2
*k[b-]	*k[b-]	*k[b-]	*k[b-]
*F:	*F:	*F:	*F:
*M2/1	*M2/1	*M2/1	*M2/1
*met(C|)	*met(C|)	*met(C|)	*met(C|)
=1	=1	=1	=1
!!section: Patrem omnipotentem
!!!OMD: Patrem omnipotentem
0r	1c	0r	0r
.	2c	.	.
.	[2c	.	.
=2	=2	=2	=2
0r	2c]	0r	0r
.	2B-y	.	.
.	2.A	.	.
.	4B-y	.	.
=3	=3	=3	=3
1F	2c	0r	0r
.	2d	.	.
2F	1c	.	.
[2F	.	.	.
=4	=4	=4	=4
2F]	2r	0r	0r
2F	2c	.	.
2.D	[1f	.	.
4E	.	.	.
=5	=5	=5	=5
2F	2f]	0r	0r
2G	2e	.	.
1F	2d	.	.
.	2c	.	.
=6	=6	=6	=6
1r	2d	0r	0r
.	4c	.	.
.	4B-y	.	.
1F	2A	.	.
.	2B-y	.	.
=7	=7	=7	=7
2F	2c	0r	0r
1B-y	2d	.	.
.	2G	.	.
2B-y	2d	.	.
=8	=8	=8	=8
2A	2c	0r	0r
2.G	1B-y	.	.
4F	.	.	.
[2F	2A	.	.
=9	=9	=9	=9
2F]	1G	1c	0r
2E	.	.	.
[1F	1r	2c	.
.	.	[2f	.
=10	=10	=10	=10
1F]	1c	2f]	0r
.	.	2f	.
2r	2c	2e	.
2BB-y	[2f	[2d	.
=11	=11	=11	=11
2.F	2f]	4d]	1cc
.	.	4c	.
.	2f	1c	.
4G	.	.	.
2A	2e	.	2cc
2B-y	[2d	2B-y	[2ff
=12	=12	=12	=12
2.F	4d]	1c	2ff]
.	4c	.	.
.	1c	.	2ff
4G	.	.	.
2A	.	2r	2ee
2B-y	2B-y	2d	[2dd
=13	=13	=13	=13
2A	1c	2e	4dd]
.	.	.	4cc
2F	.	1f	1cc
1B-y	1r	.	.
.	.	2d	2b-y
=14	=14	=14	=14
2A	0r	2e	1cc
1F	.	2.f	.
.	.	.	2a
.	.	4e	.
2B-y	.	4f	2b-y
.	.	4d	.
=15	=15	=15	=15
1A	1r	2e	1.cc
.	.	2.f	.
1F	1A	.	.
.	.	4e	.
.	.	2c	2f
=16	=16	=16	=16
0r	2B-y	2d	2g
.	1c	2.e	1a
.	.	4c	.
.	2A	[2f	2f
=17	=17	=17	=17
0r	2B-y	2f]	2.g
.	2c	2e	.
.	.	.	4a
.	2.d	2.f	2b-y
.	.	.	2a
.	4c	4e	.
=18	=18	=18	=18
0r	2B-y	2d	4g
.	.	.	4f
.	2A	1c	1f
.	1G	.	.
.	.	2B-y	2e
=19	=19	=19	=19
2r	0F	1c	[0f
1c	.	.	.
.	.	1r	.
2A	.	.	.
=20	=20	=20	=20
2B-y	1r	0r	0f]
2A	.	.	.
2B-y	2r	.	.
2A	[2c	.	.
=21	=21	=21	=21
1F	2c]	2.f	0r
.	2A	.	.
.	.	4e	.
1r	2B-y	2d	.
.	2A	2c	.
=22	=22	=22	=22
1r	2B-y	2d	2r
.	2A	2e	1cc
2r	1F	2.f	.
2F	.	.	2a
.	.	4e	.
=23	=23	=23	=23
2BB-y	1f	2d	2b-y
2F	.	2c	2a
2G	1e-X	2B-y	2b-y
2A	.	2c	2a
=24	=24	=24	=24
2.B-y	1d	2d	1f
.	.	2.f	.
4A	.	.	.
1F	1c	.	1ff
.	.	4g	.
.	.	4a	.
.	.	4f	.
=25	=25	=25	=25
0r	2c	2g	1ee
.	2A	2a	.
.	2B-y	2f	1dd
.	2B-y	4e	.
.	.	4d	.
=26	=26	=26	=26
2r	2.A	2f	1cc
1A	.	2.e	.
.	4B-y	.	.
.	2c	.	2cc
.	.	4d	.
2F	[2d	2f	2a
=27	=27	=27	=27
2G	4d]	2.e-X	2b-y
.	4G	.	.
2G	2.d	.	2b-y
.	.	4d	.
[1F	.	1f	2.a
.	4c	.	.
.	[2c	.	.
.	.	.	4b-y
=28	=28	=28	=28
2F]	2c]	2c	2cc
2BB-y	2B-y	1f	2dd
1C	2A	.	1cc
.	4G	4e	.
.	4F	4d	.
=29	=29	=29	=29
1C	2G	0e	2r
.	2.c	.	1g
2.c	.	.	.
.	4d	.	.
.	2e	.	[2cc
4B-y	.	.	.
=30	=30	=30	=30
4A	2.f	2.a	2cc]
4G	.	.	.
2.F	.	.	2a
.	4e	4g	.
.	4d	2.f	2a
4E	4c	.	.
4D	[2d	.	[2b-y
4C	.	4e	.
=31	=31	=31	=31
1BB-y	4d]	1d	4b-]
.	4c	.	4a
.	4B-y	.	4g
.	4A	.	4f
1C	1G	1c	4e
.	.	.	4f
.	.	.	4g
.	.	.	4e
=32	=32	=32	=32
[0F	1F	0c	[0f
.	2r	.	.
.	[2c	.	.
=33	=33	=33	=33
1F]	2c]	2r	0f]
.	2A	2c	.
1r	2B-y	2d	.
.	2d	[2f	.
=34	=34	=34	=34
0r	1c	2f]	2r
.	.	2e	1cc
.	1F	1f	.
.	.	.	2a
=35	=35	=35	=35
0r	0r	1f	2cc
.	.	.	2dd
.	.	2r	1cc
.	.	[2f	.
=36	=36	=36	=36
0r	0r	2f]	1cc
.	.	2e	.
.	.	2f	2r
.	.	2e	[2cc
=37	=37	=37	=37
0r	0r	2c	2cc]
.	.	2.d	2a
.	.	.	2b-y
.	.	4c	.
.	.	[2f	2a
=38	=38	=38	=38
2r	0r	4f]	2f
.	.	4e	.
2F	.	4d	2a
.	.	4c	.
2G	.	2B-y	1g
[2B-y	.	2d	.
=39	=39	=39	=39
2B-]	0r	1c	[0f
2A	.	.	.
1B-y	.	2r	.
.	.	2f	.
=40	=40	=40	=40
2r	1r	2d	1f]
2B-y	.	2f	.
2G	2r	2e	1r
2B-y	[2f	2d	.
=41	=41	=41	=41
2A	2f]	2c	0r
2G	2d	2.d	.
2F	2f	.	.
.	.	4c	.
[2G	2e	[2g	.
=42	=42	=42	=42
4G]	2d	4g]	1r
4C	.	4f	.
1c	2c	2e	.
.	1r	1d	2r
2B-y	.	.	2b-y
=43	=43	=43	=43
2c	0r	2e	2g
2B-y	.	1f	2b-y
1c	.	.	2a
.	.	2e	2g
=44	=44	=44	=44
0F	2r	1a	4f
.	.	.	4g
.	2c	.	4a
.	.	.	4b-y
.	2A	2r	2cc
.	2c	2f	2a
=45	=45	=45	=45
0r	2B-y	2d	2b-y
.	2A	2f	1cc
.	1G	2e	.
.	.	2d	2bnXi
=46	=46	=46	=46
1F	1r	1c	1cc
2F	1c	1f	1a
2F	.	.	.
=47	=47	=47	=47
1F	2c	2f	2a
.	2c	2f	2a
1BB-y	1d	1f	1b-y
=48	=48	=48	=48
1F	2c	1f	2a
.	2d	.	1b-y
1F	2c	1f	.
.	[2d	.	2a
=49	=49	=49	=49
0G	4d]	1d	2b-y
.	4c	.	.
.	4B-y	.	1a
.	4A	.	.
.	1B-y	1d	.
.	.	.	2g
=50	=50	=50	=50
[0C	0c	1e	0g
.	.	2r	.
.	.	[2g	.
=51	=51	=51	=51
0C]	2r	2g]	1r
.	1c	2e	.
.	.	2g	2r
.	2A	2a	[2cc
=52	=52	=52	=52
0r	2c	1g	2cc]
.	2.e	.	2b-y
.	.	1g	2cc
.	4d	.	.
.	[2c	.	2ee
=53	=53	=53	=53
1r	2c]	2r	1dd
.	2BnXi	2g	.
2r	[1c	2g	1cc
2C	.	2e	.
=54	=54	=54	=54
2F	1c]	2f	2r
2E	.	2g	2cc
1A	1r	4c	2cc
.	.	4d	.
.	.	4e	2a
.	.	4f	.
=55	=55	=55	=55
2G	2r	2g	2b-y
2F	2f	2a	2cc
1r	2f	1d	4f
.	.	.	4g
.	2d	.	4a
.	.	.	4b-y
=56	=56	=56	=56
2r	2e	1r	2cc
2F	2f	.	2dd
2G	2B-y	2r	2g
2F	2c	[2f	[2cc
=57	=57	=57	=57
1B-y	1d	2f]	2cc]
.	.	2d	2b-y
2A	1c	2e	2cc
2F	.	2f	2a
=58	=58	=58	=58
2G	2r	2B-y	2b-y
2A	1f	2c	1a
1B-y	.	1d	.
.	2d	.	2g
=59	=59	=59	=59
2A	2e	1c	2.a
2F	2f	.	.
.	.	.	4cc
2G	2B-y	2r	4b-y
.	.	.	4a
2F	2c	[2f	[2a
=60	=60	=60	=60
1B-y	1d	2f]	2a]
.	.	2d	2g
2A	2c	2e	2a
2D	4B-y	2f	[2dd
.	4A	.	.
=61	=61	=61	=61
2E-X	1G	2B-y	4dd]
.	.	.	4cc
2C	.	2c	1cc
1G	1r	1d	.
.	.	.	2bnXi
=62	=62	=62	=62
0C	2r	1c	[0cc
.	2c	.	.
.	2A	1r	.
.	2G	.	.
=63	=63	=63	=63
2r	2.c	0r	0cc]
2c	.	.	.
.	4d	.	.
2A	2e	.	.
2F	[2f	.	.
=64	=64	=64	=64
1B-y	2f]	0r	0r
.	2B-y	.	.
2A	2c	.	.
2B-y	[2d	.	.
=65	=65	=65	=65
1G	2d]	0r	1r
.	4c	.	.
.	4B-y	.	.
[1F	2d	.	2r
.	2c	.	2cc
=66	=66	=66	=66
1F]	2d	1r	2a
.	4c	.	2f
.	4B-y	.	.
1r	2.A	2r	2.cc
.	.	2f	.
.	4B-y	.	4dd
=67	=67	=67	=67
0r	2c	2e	2ee
.	2d	2d	2ff
.	2B-y	1f	2dd
.	2A	.	[2cc
=68	=68	=68	=68
0r	2c	2e	4cc]
.	.	.	4b-y
.	2d	2f	1a
.	1B-y	1d	.
.	.	.	2g
=69	=69	=69	=69
2r	1A	2c	1a
2F	.	2c	.
1c	1r	4e	2r
.	.	4f	.
.	.	4g	2g
.	.	4e	.
=70	=70	=70	=70
1A	0r	4f	1cc
.	.	4e	.
.	.	2.a	.
2.d	.	.	2a
.	.	4g	.
.	.	4f	[2dd
4c	.	4e	.
=71	=71	=71	=71
2B-y	1r	4d	2dd]
.	.	4c	.
2A	.	1f	2cc
1G	2r	.	2b-y
.	2G	2e	4a
.	.	.	4g
=72	=72	=72	=72
[0F	1c	[0f	2.a
.	.	.	4b-y
.	2A	.	4cc
.	.	.	4a
.	[2d	.	[2b-y
=73	=73	=73	=73
1F]	2d]	0f_	2b-]
.	2c	.	2a
1BB-y	2B-y	.	1dd
.	4A	.	.
.	4G	.	.
=74	=74	=74	=74
2.F	2.A	0f]	2.cc
4G	4B-y	.	4b-y
2A	2c	.	4a
.	.	.	4g
[2B-y	[2d	.	[2f
=75	=75	=75	=75
4B-]	2d]	1r	4f]
4A	.	.	4g
2F	1c	.	4a
.	.	.	4f
1G	.	2r	4b-y
.	.	.	4a
.	2BnXi	2d	4g
.	.	.	4f
=76	=76	=76	=76
1.C	[0cl	1g	2.e
.	.	.	4f
.	.	2e	4g
.	.	.	4e
[2F	.	[2a	[2f
=77	=77	=77	=77
2F]	0c_	2a]	2f]
2E	.	2g	2g
1F	.	2f	1a
.	.	4e	.
.	.	4d	.
=78	=78	=78	=78
0Cl	0c]	0el	0gl
=79||	=79||	=79||	=79||
*M2/1	*M2/1	*M2/1	*M2/1
*met(C|)	*met(C|)	*met(C|)	*met(C|)
!!section: Et incarnatus est
!!!OMD: Et incarnatus est
0r	0c	0r	0r
=80	=80	=80	=80
0F	1A	0r	0r
.	1c	.	.
=81	=81	=81	=81
1D	2d	0r	0r
.	2.f	.	.
1F	.	.	.
.	4e	.	.
.	[2d	.	.
=82	=82	=82	=82
1.G	4d]	0r	0r
.	4c	.	.
.	4B-y	.	.
.	4A	.	.
.	2B-y	.	.
2F	2c	.	.
=83	=83	=83	=83
[0F	0A	0r	0cc
=84	=84	=84	=84
0F]	0r	0f	1a
.	.	.	1cc
=85	=85	=85	=85
0r	0r	1d	2dd
.	.	.	2.ff
.	.	1f	.
.	.	.	4ee
.	.	.	[2dd
=86	=86	=86	=86
0r	0r	1.g	4dd]
.	.	.	4cc
.	.	.	4b-y
.	.	.	4a
.	.	.	2b-y
.	.	2f	2cc
=87	=87	=87	=87
2r	1r	1f	2.a
2F	.	.	.
.	.	.	8gL
.	.	.	8fJ
2F	2r	1r	1g
2E	2c	.	.
=88	=88	=88	=88
2.F	2c	0r	0r
.	2A	.	.
4E	.	.	.
2D	2B-y	.	.
2C	4A	.	.
.	4G	.	.
=89	=89	=89	=89
2D	2F	2r	1r
2F	2A	2f	.
1C	1G	2f	2r
.	.	2e	2cc
=90	=90	=90	=90
1F	2r	2.f	2cc
.	2F	.	2a
.	.	4e	.
1r	2G	2d	2b-y
.	2A	2c	4a
.	.	.	4g
=91	=91	=91	=91
0r	2B-y	2d	2f
.	2F	1f	2a
.	1c	.	1g
.	.	2e	.
=92	=92	=92	=92
2r	2A	1f	0f
2B-y	2B-y	.	.
2B-y	1c	2r	.
2A	.	2c	.
=93	=93	=93	=93
2B-y	1r	2d	1r
4A	.	2e	.
4G	.	.	.
2F	2r	1f	1a
2A	2c	.	.
=94	=94	=94	=94
1G	2d	1B-y	2b-y
.	2e	.	2g
2F	1f	1c	2a
2A	.	.	[2cc
=95	=95	=95	=95
1G	1B-y	1d	4cc]
.	.	.	4b-y
.	.	.	1b-y
1F	1c	2r	.
.	.	2f	2a
=96	=96	=96	=96
2r	[0d	1.f	1b-y
2B-y	.	.	.
[1B-y	.	.	2r
.	.	2d	2b-y
=97	=97	=97	=97
2B-]	1d]	2f	1.b-y
2G	.	1g	.
2B-y	1r	.	.
2c	.	2e	2g
=98	=98	=98	=98
2B-y	2r	2f	2b-y
2G	1d	2g	2b-y
1A	.	1e	[1a
.	2c#i	.	.
=99	=99	=99	=99
2F	1d	2r	1a]
2D	.	1d	.
1E-X	2B-y	.	2r
.	2G	2c	[2g
=100	=100	=100	=100
1D	1A	1d	2g]
.	.	.	2f#i
2E-X	1G	2B-y	1g
2C	.	2c	.
=101	=101	=101	=101
1G	2r	2.d	1b-y
.	2G	.	.
.	.	4e	.
2.F	2A	1f	2a
.	2F	.	[2cc
4E	.	.	.
=102	=102	=102	=102
2C	1G	2e-X	2cc]
1G	.	1d	2.b-y
.	[1B-y	.	.
.	.	.	4a
[2E-X	.	[2e-i	4g
.	.	.	4f
=103	=103	=103	=103
2E-]	2B-]	2e-]	2g
2F	2A	2d	1f
1C	1G	[1c	.
.	.	.	2e
=104	=104	=104	=104
[0F	0F	0c_	0f
=105	=105	=105	=105
0F]	0r	1c]	1r
.	.	2r	1cc
.	.	[2f	.
=106	=106	=106	=106
0r	0r	2f]	2a
.	.	2d	2b-y
.	.	2e	1cc
.	.	[2f	.
=107	=107	=107	=107
0r	0r	2f]	2a
.	.	2e	2cc
.	.	2f	2.dd
.	.	[2g	.
.	.	.	4cc
=108	=108	=108	=108
1r	0r	2g]	2b-y
.	.	2e	2cc
2r	.	2.f	1a
2F	.	.	.
.	.	4e	.
=109	=109	=109	=109
2.G	2r	2d	1g
.	2B-y	2.g	.
4F	.	.	.
2E	2.c	.	1r
.	.	4f	.
[2F	.	[2a	.
.	4B-y	.	.
=110	=110	=110	=110
2F]	2A	2a]	0r
2D	2B-y	4g	.
.	.	4f	.
2C	2G	2e	.
[2F	2F	2f	.
=111	=111	=111	=111
4F]	2r	1c	1r
4G	.	.	.
4A	2f	.	.
4B-y	.	.	.
2c	2e	1r	2r
2A	[2f	.	2cc
=112	=112	=112	=112
2.B-y	2f]	2r	2.dd
.	1d	2f	.
4A	.	.	4cc
2G	.	2.g	2b-y
[2c	[2e	.	2cc
.	.	4f	.
=113	=113	=113	=113
2c]	4e]	2e	1a
.	4d	.	.
2F	1c	2f	.
1G	.	1d	[1g
.	2BnXi	.	.
=114	=114	=114	=114
1C	1c	1e	1g]
1r	1r	1r	1r
=115	=115	=115	=115
3%2C	3%2c	3%2e	3%2g
3%2F	3%2A	3%2f	3%2a
3%2G	3%2d	3%2d	3%2g
=116	=116	=116	=116
3%2C	3%4c	3%2e	3%2.g
3%2G	.	3%4d	.
.	.	.	3a
3%2G	3%2B-y	.	3%2b-y
=117	=117	=117	=117
3%4F	3%2.A	3%2.f	3%4cc
.	3B-y	3d	.
3%2r	3%2c	3%2e	3%2r
=118	=118	=118	=118
3%4B-y	3%4d	3%2.f	3%4f
.	.	3e	.
3%2A	3%2r	3%2c	3%2cc
=119	=119	=119	=119
3%2F	3%4f	3%2d	3%2a
3%4G	.	3%4B-y	3%4b-y
.	3%2e	.	.
=120	=120	=120	=120
[0Fl	2c	[0fl	[0al
.	1d	.	.
.	[2cl	.	.
=121	=121	=121	=121
0F]	0c]	0f]	0a]
=122||	=122||	=122||	=122||
*M2/1	*M2/1	*M2/1	*M2/1
*met(C|)	*met(C|)	*met(C|)	*met(C|)
!!section: Et resurrexit
!!!OMD: Et resurrexit
1F	0r	0r	0r
2G	.	.	.
2E	.	.	.
=123	=123	=123	=123
1F	1c	0r	0r
1BB-y	2d	.	.
.	2B-y	.	.
=124	=124	=124	=124
2r	1c	0r	0r
1F	.	.	.
.	2F	.	.
2E	[2c	.	.
=125	=125	=125	=125
2F	2c]	0r	0r
2E	2c	.	.
2D	1d	.	.
[2G	.	.	.
=126	=126	=126	=126
4G]	1B-y	0r	0r
4F	.	.	.
4E	.	.	.
4D	.	.	.
4C	1c	.	.
4D	.	.	.
4E	.	.	.
4F	.	.	.
=127	=127	=127	=127
2G	2r	0r	0r
1A	1c	.	.
4G	2B-y	.	.
4F	.	.	.
=128	=128	=128	=128
4E	2c	0r	0r
4D	.	.	.
1G	2B-y	.	.
.	2A	.	.
2F	[2d	.	.
=129	=129	=129	=129
2.G	4d]	0r	0r
.	4c	.	.
.	4B-y	.	.
4F	4A	.	.
4E	4G	.	.
4D	4A	.	.
2G	4B-y	.	.
.	4c	.	.
=130	=130	=130	=130
4F	2d	0r	0r
4E	.	.	.
4D	1c	.	.
4C	.	.	.
1D	.	.	.
.	2BnXi	.	.
=131	=131	=131	=131
1C	[0c	0r	0r
2r	.	.	.
[2C	.	.	.
=132	=132	=132	=132
2C]	0c]	0r	0r
2D	.	.	.
2E	.	.	.
[2F	.	.	.
=133	=133	=133	=133
4F]	2r	0r	0r
4G	.	.	.
2A	1f	.	.
2B-y	.	.	.
2c	2e	.	.
=134	=134	=134	=134
1F	2d	0r	0r
.	2.c	.	.
2r	.	.	.
.	4B-y	.	.
[2C	2A	.	.
=135	=135	=135	=135
2C]	2G	0r	0r
2D	2F	.	.
2E	1c	.	.
[2F	.	.	.
=136	=136	=136	=136
4F]	2r	0r	0r
4G	.	.	.
2A	1f	.	.
2B-y	.	.	.
2c	2e	.	.
=137	=137	=137	=137
0F	2d	0r	0r
.	2.c	.	.
.	4B-y	.	.
.	2A	.	.
=138	=138	=138	=138
2r	2G	0r	0r
2c	2F	.	.
4A	1c	.	.
4G	.	.	.
4A	.	.	.
4B-y	.	.	.
=139	=139	=139	=139
2c	2r	0r	0r
2F	2c	.	.
2F	4A	.	.
.	4G	.	.
2F	4A	.	.
.	4B-y	.	.
=140	=140	=140	=140
0F	2c	0r	0r
.	2c	.	.
.	2c	.	.
.	2c	.	.
=141	=141	=141	=141
2r	0c	0r	0r
2F	.	.	.
2F	.	.	.
2E	.	.	.
=142	=142	=142	=142
2F	2r	0r	0r
2G	2B-y	.	.
2C	2B-y	.	.
2F	2A	.	.
=143	=143	=143	=143
2G	2B-y	0r	0r
2A	2c	.	.
2.B-y	2.d	.	.
4A	4c	.	.
=144	=144	=144	=144
4G	4B-y	0r	0r
4F	4A	.	.
1G	1B-y	.	.
4F	4A	.	.
4E	4G	.	.
=145	=145	=145	=145
1D	2B-y	0r	0r
.	2A	.	.
2r	1F	.	.
2F	.	.	.
=146	=146	=146	=146
2F	1c	0r	0r
2E	.	.	.
2F	1d	.	.
2G	.	.	.
=147	=147	=147	=147
2.A	[0cl	0r	0r
4G	.	.	.
4F	.	.	.
4E	.	.	.
[2F	.	.	.
=148	=148	=148	=148
2F]	0c_	0r	0r
4E	.	.	.
4D	.	.	.
2F	.	.	.
2E	.	.	.
=149	=149	=149	=149
0Cl	0c]	0r	0r
=150||	=150||	=150||	=150||
*M2/1	*M2/1	*M2/1	*M2/1
*met(C|)	*met(C|)	*met(C|)	*met(C|)
!!section: Et iterum venturus
!!!OMD: Et iterum venturus
0r	0r	0g	0r
=151	=151	=151	=151
0r	0r	1a	0r
.	.	1g	.
=152	=152	=152	=152
0r	0r	1e	0cc
.	.	[1f	.
=153	=153	=153	=153
0r	0r	2f]	1dd
.	.	2d	.
.	.	2e	1cc
.	.	[2f	.
=154	=154	=154	=154
0r	0r	2f]	1a
.	.	4e	.
.	.	4d	.
.	.	2e	[1cc
.	.	2f	.
=155	=155	=155	=155
0r	0r	1c	2cc]
.	.	.	2a
.	.	1r	2b-y
.	.	.	[2cc
=156	=156	=156	=156
0r	0r	1f	2cc]
.	.	.	4b-y
.	.	.	4a
.	.	2g	2b-y
.	.	2e	2cc
=157	=157	=157	=157
0r	0r	1f	2f
.	.	.	1cc
.	.	2r	.
.	.	2f	2dd
=158	=158	=158	=158
0r	0r	2g	2b-y
.	.	2e	2cc
.	.	[1f	2r
.	.	.	2cc
=159	=159	=159	=159
0r	0r	2f]	2dd
.	.	2g	2b-y
.	.	2a	[1cc
.	.	2f	.
=160	=160	=160	=160
0r	0r	2a	2cc]
.	.	1g	2dd
.	.	.	2ee
.	.	4f	2cc
.	.	4e	.
=161	=161	=161	=161
0r	0r	1d	2dd
.	.	.	1ff
.	.	1g	.
.	.	.	2ee
=162	=162	=162	=162
0r	0r	2f	2dd
.	.	2a	2ff
.	.	2g	2ee
.	.	[2f	[2dd
=163	=163	=163	=163
0r	0r	4f]	4dd]
.	.	4c	4cc
.	.	2e	1cc
.	.	1d	.
.	.	.	2bnXi
=164	=164	=164	=164
0r	0r	1c	[0cc
.	.	1r	.
=165	=165	=165	=165
0r	0r	1f	0cc]
.	.	2e	.
.	.	2f	.
=166	=166	=166	=166
0r	0r	2c	1r
.	.	1f	.
.	.	.	1cc
.	.	2e	.
=167	=167	=167	=167
0r	0r	2d	2b-y
.	.	4c	2cc
.	.	4d	.
.	.	4e	2g
.	.	4f	.
.	.	4g	2b-y
.	.	4e	.
=168	=168	=168	=168
0r	0r	4f	2a
.	.	4g	.
.	.	1a	2.f
.	.	.	4g
.	.	2d	4a
.	.	.	4b-y
=169	=169	=169	=169
0r	0r	4e	4cc
.	.	4f	4a
.	.	4g	2.b-y
.	.	4a	.
.	.	4g	.
.	.	4f	4cc
.	.	[2f	2a
=170	=170	=170	=170
0r	0r	2f]	2g
.	.	2e	2.cc
.	.	1f	.
.	.	.	4b-y
.	.	.	4a
.	.	.	4g
=171	=171	=171	=171
0r	0r	1r	0a
.	.	1f	.
=172	=172	=172	=172
0r	0r	2e	0r
.	.	2f	.
.	.	2c	.
.	.	[2f	.
=173	=173	=173	=173
0r	0r	2f]	1cc
.	.	2e	.
.	.	2d	2b-y
.	.	4c	2cc
.	.	4d	.
=174	=174	=174	=174
0r	0r	4e	2g
.	.	4f	.
.	.	2.g	1b-y
.	.	4f	.
.	.	2f	2a
=175	=175	=175	=175
0r	0r	2e	2g
.	.	2.f	4f
.	.	.	4g
.	.	.	4a
.	.	4d	4b-y
.	.	4e	4cc
.	.	4f	4a
=176	=176	=176	=176
0r	0r	4g	4b-y
.	.	4e	4cc
.	.	4f	2dd
.	.	4g	.
.	.	2a	2cc
.	.	[2g	[2b-y
=177	=177	=177	=177
0r	0r	4g]	4b-]
.	.	4f	4a
.	.	1f	4g
.	.	.	4f
.	.	.	1g
.	.	2e	.
=178	=178	=178	=178
0r	0r	0fl	0fl
=179||	=179||	=179||	=179||
*M2/1	*M2/1	*M2/1	*M2/1
*met(C|)	*met(C|)	*met(C|)	*met(C|)
!!section: Et in Spiritum
!!!OMD: Et in Spiritum
1.F	1.f	1.a	1.cc
2F	2f	2a	2cc
=180	=180	=180	=180
1c	1e	1g	1cc
1d	1d	1f	1b-y
=181	=181	=181	=181
0c	0e	0g	0cc
=182	=182	=182	=182
1.F	1.f	1.a	1.cc
2F	2f	2a	2cc
=183	=183	=183	=183
1A	1e	1a	1cc
1B-y	1d	1g	1dd
=184	=184	=184	=184
0A	1e	1a	0cc
.	2r	2r	.
.	[2c	[2e	.
=185	=185	=185	=185
2r	2c]	2e]	2r
1F	2A	2c	1cc
.	2c	1f	.
2F	2d	.	2a
=186	=186	=186	=186
2A	2c	2e	2cc
2B-y	2.f	2d	2dd
1c	.	1g	1cc
.	4d	.	.
.	2e	.	.
=187	=187	=187	=187
[0F	[0c	1f	0cc
.	.	1r	.
=188	=188	=188	=188
0F]	0c_	0f	0r
=189	=189	=189	=189
0r	0c]	1g	0r
.	.	1e	.
=190	=190	=190	=190
0r	0r	1.f	0cc
.	.	2f	.
=191	=191	=191	=191
0r	0r	2f	1dd
.	.	2.g	.
.	.	.	1b-y
.	.	4f	.
.	.	2d	.
=192	=192	=192	=192
0r	0r	2e	1cc
.	.	2f	.
.	.	2c	2r
.	.	[2f	2cc
=193	=193	=193	=193
0r	0r	2f]	2ff
.	.	2.B-y	2ff
.	.	.	1dd
.	.	4c	.
.	.	4d	.
.	.	4e	.
=194	=194	=194	=194
0F	0r	4f	2.cc
.	.	4e	.
.	.	2.f	.
.	.	.	4b-y
.	.	.	4a
.	.	4e	4g
.	.	[2d	[2a
=195	=195	=195	=195
1G	0r	4d]	2a]
.	.	4c	.
.	.	4B-y	4g
.	.	4A	4f
1E-X	.	1B-y	1g
=196	=196	=196	=196
1F	0c	1A	0a
2r	.	2r	.
2F	.	[2f	.
=197	=197	=197	=197
1B-y	1d	2f]	0r
.	.	2d	.
1G	1B-y	2e	.
.	.	4d	.
.	.	4e	.
=198	=198	=198	=198
2F	1c	4f	0r
.	.	4g	.
2F	.	4a	.
.	.	4f	.
2E	2r	2g	.
2F	2c	[2f	.
=199	=199	=199	=199
2D	1f	4f]	0r
.	.	4e	.
2.BB-y	.	4d	.
.	.	4c	.
.	1d	1B-y	.
4C	.	.	.
4D	.	.	.
4E	.	.	.
=200	=200	=200	=200
4F	2c	1A	0r
4G	.	.	.
4A	2c	.	.
4F	.	.	.
2G	2B-y	1r	.
2A	2c	.	.
=201	=201	=201	=201
1B-y	1d	0r	1f
[1F	1c	.	2f
.	.	.	[2cc
=202	=202	=202	=202
0F]	1A	1c	2cc]
.	.	.	2cc
.	1r	2c	2.a
.	.	[2f	.
.	.	.	4b-y
=203	=203	=203	=203
0r	0r	2f]	4cc
.	.	.	4a
.	.	2f	1dd
.	.	2.d	.
.	.	.	4cc
.	.	4e	4b-y
=204	=204	=204	=204
0r	1r	4f	4a
.	.	4d	4g
.	.	2.g	2.b-y
.	1F	.	.
.	.	4f	4a
.	.	[2f	[2a
=205	=205	=205	=205
1r	2F	2f]	2a]
.	1c	4e	4g
.	.	4d	4f
1C	.	1e	1g
.	2c	.	.
=206	=206	=206	=206
2C	2.A	1c	0r
1F	.	.	.
.	4B-y	.	.
.	4c	1r	.
.	4A	.	.
2F	[2d	.	.
=207	=207	=207	=207
2.D	2d]	0r	0r
.	4c	.	.
4E	4B-y	.	.
4F	4A	.	.
4D	4G	.	.
[2G	[2B-y	.	.
=208	=208	=208	=208
4G]	4B-]	0r	1cc
4F	4A	.	.
1F	1A	.	.
.	.	.	2a
4E	4G	.	[2b-y
4D	4F	.	.
=209	=209	=209	=209
1E-X	2G	1r	2b-]
.	1c	.	2g
1F	.	1f	2a
.	2A	.	2f
=210	=210	=210	=210
1r	2B-y	2d	1g
.	2c	1e	.
2r	1A	.	1cc
[2F	.	2c	.
=211	=211	=211	=211
2F]	1r	2f	1a
2D	.	2f	.
2E	2r	4g	1r
.	.	4f	.
2C	[2c	4e	.
.	.	4d	.
=212	=212	=212	=212
1F	2c]	2c	0r
.	2A	1f	.
2G	2B-y	.	.
[2B-y	2G	2e	.
=213	=213	=213	=213
2B-]	1c	1f	2r
2A	.	.	1cc
1B-y	2d	1r	.
.	[2f	.	2b-y
=214	=214	=214	=214
0r	2f]	1r	1cc
.	2e	.	.
.	1f	2r	1cc
.	.	[2f	.
=215	=215	=215	=215
1r	0r	2f]	1.cc
.	.	2e	.
2r	.	2f	.
[2F	.	2f	2dd
=216	=216	=216	=216
2F]	1r	2f	2.cc
2E	.	2g	.
.	.	.	4b-y
2F	2r	2.f	1a
2F	[2c	.	.
.	.	4e	.
=217	=217	=217	=217
2F	2c]	1d	0r
2G	2B-y	.	.
2.F	2c	1r	.
.	2c	.	.
4E	.	.	.
=218	=218	=218	=218
1D	2d	0r	[0a
.	2d	.	.
1r	2.c	.	.
.	4B-y	.	.
=219	=219	=219	=219
1F	1A	1c	1a]
[1F	1c	[1f	[1a
=220	=220	=220	=220
2F]	2c	2f]	2a]
2F	2c	2f	2a
2F	2c	2f	2a
2F	2c	2f	2a
=221	=221	=221	=221
1.F	1.A	1.c	1a
.	.	.	1f
2BB-y	2B-y	2d	.
=222	=222	=222	=222
2F	2A	2c	2.a
2D	2F	1f	.
.	.	.	4b-y
1C	1G	.	4cc
.	.	.	4dd
.	.	2e	[2cc
=223	=223	=223	=223
[0F	2.A	0f	4cc]
.	.	.	4a
.	.	.	2dd
.	4B-y	.	.
.	4c	.	2cc
.	4A	.	.
.	[2d	.	[2b-y
=224	=224	=224	=224
0F]	2d]	1r	2b-]
.	4c	.	4a
.	4B-y	.	4g
.	1c	2r	1a
.	.	2f	.
=225	=225	=225	=225
[0BB-y	0B-y	2f	0b-y
.	.	2d	.
.	.	1f	.
=226	=226	=226	=226
1BB-]	2r	2.B-y	0r
.	2B-y	.	.
.	.	4c	.
2r	2B-y	2d	.
2C	2G	[2e-X	.
=227	=227	=227	=227
1.G	2.B-y	4e-]	2r
.	.	4d	.
.	.	1d	2b-y
.	4c	.	.
.	2d	.	2b-y
2C	[2e-i	2c	2g
=228	=228	=228	=228
2.G	2e-]	1d	2.b-y
.	1d	.	.
4A	.	.	4cc
2B-y	.	1r	2dd
[2c	2c	.	[2ee-X
=229	=229	=229	=229
2c]	1d	0g	4ee-]
.	.	.	4dd
2B-y	.	.	1dd
1c	1r	.	.
.	.	.	2cc
=230	=230	=230	=230
1G	2r	1g	2.dd
.	2B-y	.	.
.	.	.	4ee
1r	2B-y	2f	4ff
.	.	.	4dd
.	2G	[2g	[2ee-X
=231	=231	=231	=231
1r	1B-y	4g]	2ee-]
.	.	4f	.
.	.	4e	1dd
.	.	4d	.
2r	1A	1e	.
2A	.	.	2cc#i
=232	=232	=232	=232
2B-y	1r	[0d	0dd
1G	.	.	.
.	2r	.	.
2F	2A	.	.
=233	=233	=233	=233
2G	2B-y	0d_	1r
1B-y	1G	.	.
.	.	.	2r
2A	2F	.	2a
=234	=234	=234	=234
2G	2G	0d_	2b-y
2G	1B-y	.	1g
1D	.	.	.
.	2A	.	2f
=235	=235	=235	=235
1r	2G	0d]	2g
.	2G	.	1b-y
2r	1F	.	.
2F	.	.	2a
=236	=236	=236	=236
2F	2r	0r	2g
2E	2c	.	2g
2F	2c	.	[1f
2BB-y	2B-y	.	.
=237	=237	=237	=237
1.F	2c	2r	1f]
.	2F	2f	.
.	[1c	2f	1r
2C	.	2e	.
=238	=238	=238	=238
2F	2c]	2f	0r
2F	2c	2c	.
4F	2c	[1f	.
4G	.	.	.
4A	2c	.	.
4F	.	.	.
=239	=239	=239	=239
2B-y	2d	2f]	2r
2d	1f	2f	2f
2.c	.	2g	[1cc
.	4e	2g	.
4B-y	4d	.	.
=240	=240	=240	=240
4A	2e	1a	2cc]
4G	.	.	.
1F	2.d	.	2cc
.	.	2r	2cc
.	4c	.	.
2E	[2c	2c	2cc
=241	=241	=241	=241
2D	2c]	1.f	2dd
2BB-y	2B-y	.	1ff
1F	[1c	.	.
.	.	2f	4ee
.	.	.	4dd
=242	=242	=242	=242
2C	2c]	2g	2ee
1G	2d	2g	2.dd
.	2e	1a	.
.	.	.	4cc
2F	2f	.	[2cc
=243	=243	=243	=243
1G	1d	1g	2cc]
.	.	.	2bnXi
2A	[1c	2e	1cc
[2F	.	[2f	.
=244	=244	=244	=244
4F]	1c]	4f]	1a
4G	.	4e	.
4A	.	4e	.
4B-y	.	4d	.
2c	1r	[1e	[1g
2C	.	.	.
=245	=245	=245	=245
1C	0c	1e]	0g]
1r	.	1r	.
=246	=246	=246	=246
0F	1A	0f	0a
.	1c	.	.
=247	=247	=247	=247
1BB-y	1.d	1d	1b-y
1F	.	1f	1a
.	2c	.	.
=248	=248	=248	=248
1.C	0c	1.g	1.cc
2F	.	2f	2a
=249	=249	=249	=249
2F	1.c	2f	2a
1F	.	1f	1a
2A	2A	2c	2cc
=250	=250	=250	=250
2G	2B-y	2d	2b-y
1F	2c	2.f	2.a
.	2A	.	.
.	.	4e	4g
2BB-y	2B-y	2d	[2f
=251	=251	=251	=251
1C	1G	1.c	2f]
.	.	.	2e
[1F	1F	.	1f
.	.	2A	.
=252	=252	=252	=252
1F]	1r	2c	1a
.	.	2d	.
1r	[1c	1e	1g
=253	=253	=253	=253
1r	1c]	1r	1r
[1F	1A	[1f	[1a
=254	=254	=254	=254
1F]	1c	1f]	1a]
1BB-y	[1d	1d	1b-y
=255	=255	=255	=255
1F	2d]	1f	1a
.	2c	.	.
[1C	[1c	[1g	[1cc
=256	=256	=256	=256
2C]	1c]	2g]	2cc]
2F	.	2f	2a
2F	[1c	2f	2a
[2F	.	[2f	[2a
=257	=257	=257	=257
2F]	2c]	2f]	2a]
2A	2A	2c	2cc
2G	2B-y	2d	2b-y
[2F	2c	[2f	[2a
=258	=258	=258	=258
2F]	2A	4f]	4a]
.	.	4e	4g
2BB-y	2B-y	2d	1f
1C	1G	1c	.
.	.	.	2e
=259	=259	=259	=259
0Fl	0Fl	0cl	0fl
==	==	==	==
*-	*-	*-	*-
!!!system-decoration: s1,s2,s3,s4
!!!RDF**kern: i = editorial accidental
!!!RDF**kern: l = terminal long
!!!ENC: David Nivarlet
!!!END: 2026/03/01
!!!EED: Benjamin Ory
!!!EEV: 2026/03/12
!!!YEC: Copyright 2026 Benjamin Ory, All Rights Reserved
!!!ONB: Translated from MusicXML on 2026/03/12
